X: 17314
T: Hiccup Free Day
R: reel
M: 4/4
K: Dmajor
|:fB c d2 dcd|B2 BA Bcde|fB c d2 dcd|B2 BA FA E2|
fB c d2 dcd|B2 BA Bcde|f2 ba f2 ed-|deBA B4:|
|:B2 AB F2 FE-|EFFE BAFE|B2 AB F2 FE-|EFFD EFED|
B2 AB F2 FE-|EFFE BAFE|1 F2 AB B2 AB-|Bdef f4:|2 F2 BA B2 BA-
Bdef A4|:ABef a2 af-|faed e2 dB|ABef a2 ab-|bbab f2 ed|
ABef a2 af-|faed e2 dB|1 A2 FA E2 ED-|DEED e2 dB:|2 A2 FA E2 ED-|DEED F4|

